Origami/16x16/apps/preferences-desktop-plasma.svg

<svg width="16" height="16" version="1.1" viewBox="0 0 16 16" xmlns="http://www.w3.org/2000/svg">
 <g transform="translate(0,-1036.3622)">
  <g transform="translate(0,1036.3622)">
   <rect transform="matrix(0,-1,-1,0,0,0)" x="-15" y="-16" width="14" height="16" rx=".74998999" ry=".85714" style="fill:#4ab3e4"/>
   <g style="fill:#ffffff">
    <g transform="matrix(-.031394 0 0 -.031146 11.383 13.041)">
     <g style="fill:#ffffff">
      <g style="fill:#ffffff">
       <path transform="matrix(11.498,0,0,11.498,-135.83,-118.41)" d="m20.314 12.539c-0.83567 0.7607-1.5166 1.6303-1.7871 2.8809-0.53798 2.4879 0.77013 5.9992 6.0527 8.3926 4.9711 2.2523 5.9094 5.5908 5.2031 7.7656-0.71244 2.1934-3.3358 4.1732-7.4102 3.3359-0.43517-0.09181-0.86438-0.21026-1.2891-0.35156 1.0881 0.73142 4.0872 1.2861 6.068 0.79777 3.7616-0.92745 7.5687-2.6789 9.4984-6.6982 2.9574-6.5276 0.05302-14.246-6.4746-17.203-3.6091-1.6034-7.0252-1.4532-9.8613 1.0801z" style="fill:#ffffff"/>
      </g>
     </g>
    </g>
    <path d="m11 4a1 1 0 0 1 -1 1 1 1 0 0 1 -1 -1 1 1 0 0 1 1 -1 1 1 0 0 1 1 1z"/>
    <path d="m13 6a1 1 0 0 1 -1 1 1 1 0 0 1 -1 -1 1 1 0 0 1 1 -1 1 1 0 0 1 1 1z"/>
    <path d="m13 9a1 1 0 0 1 -1 1 1 1 0 0 1 -1 -1 1 1 0 0 1 1 -1 1 1 0 0 1 1 1z"/>
   </g>
  </g>
 </g>
</svg>

<?xml version="1.0" encoding="UTF-8" standalone="no"?>
<svg
   xmlns:dc="http://purl.org/dc/elements/1.1/"
   xmlns:cc="http://creativecommons.org/ns#"
   xmlns:rdf="http://www.w3.org/1999/02/22-rdf-syntax-ns#"
   xmlns:svg="http://www.w3.org/2000/svg"
   xmlns="http://www.w3.org/2000/svg"
   version="1.1"
   id="svg8329"
   viewBox="0 0 16 16"
   height="16"
   width="16">
  <defs
     id="defs8331" />
  <metadata
     id="metadata8334">
    <rdf:RDF>
      <cc:Work
         rdf:about="">
        <dc:format>image/svg+xml</dc:format>
        <dc:type
           rdf:resource="http://purl.org/dc/dcmitype/StillImage" />
        <dc:title></dc:title>
      </cc:Work>
    </rdf:RDF>
  </metadata>
  <g
     transform="translate(0,-1036.3622)"
     id="layer1">
    <g
       id="g8299"
       transform="translate(0,1036.3622)">
      <rect
         style="fill:#4ab3e4"
         id="rect4255"
         ry="0.85714"
         rx="0.74998999"
         transform="matrix(0,-1,-1,0,0,0)"
         height="16"
         width="14"
         y="-16"
         x="-15" />
      <g
         style="fill:#ffffff"
         id="g6226">
        <g
           id="g4438"
           transform="matrix(-0.031394,0,0,-0.031146,11.383,13.041)">
          <g
             style="fill:#ffffff"
             id="Layer_5_17_">
            <g
               style="fill:#ffffff"
               id="g4441">
              <path
                 style="fill:#ffffff"
                 id="path4443"
                 d="m 20.314,12.539 c -0.83567,0.7607 -1.5166,1.6303 -1.7871,2.8809 -0.53798,2.4879 0.77013,5.9992 6.0527,8.3926 4.9711,2.2523 5.9094,5.5908 5.2031,7.7656 -0.71244,2.1934 -3.3358,4.1732 -7.4102,3.3359 -0.43517,-0.09181 -0.86438,-0.21026 -1.2891,-0.35156 1.0881,0.73142 4.0872,1.2861 6.068,0.79777 3.7616,-0.92745 7.5687,-2.6789 9.4984,-6.6982 2.9574,-6.5276 0.05302,-14.246 -6.4746,-17.203 -3.6091,-1.6034 -7.0252,-1.4532 -9.8613,1.0801 z"
                 transform="matrix(11.498,0,0,11.498,-135.83,-118.41)" />
            </g>
          </g>
        </g>
        <path
           id="path4514"
           d="M 11,4 A 1,1 0 0 1 10,5 1,1 0 0 1 9,4 1,1 0 0 1 10,3 1,1 0 0 1 11,4 Z" />
        <path
           id="path4517"
           d="M 13,6 A 1,1 0 0 1 12,7 1,1 0 0 1 11,6 1,1 0 0 1 12,5 1,1 0 0 1 13,6 Z" />
        <path
           id="path4519"
           d="m 13,9 a 1,1 0 0 1 -1,1 1,1 0 0 1 -1,-1 1,1 0 0 1 1,-1 1,1 0 0 1 1,1 z" />
      </g>
    </g>
  </g>
</svg>
